shield-lock-open-outline.svg

<svg fill="currentColor" viewBox="0 0 24 24"><path d="M21 11c0 5.5-3.8 10.7-9 12-5.2-1.3-9-6.5-9-12V5l9-4 9 4zm-9 10c3.8-1 7-5.5 7-9.8V6.3l-7-3.1-7 3.1v4.9c0 4.3 3.2 8.8 7 9.8m2.8-10h-4.3V8.5c0-.8.7-1.3 1.5-1.3s1.5.5 1.5 1.3V9h1.3v-.5C14.8 7.1 13.4 6 12 6S9.2 7.1 9.2 8.5V11c-.6 0-1.2.6-1.2 1.2v3.5c0 .7.6 1.3 1.2 1.3h5.5c.7 0 1.3-.6 1.3-1.2v-3.5c0-.7-.6-1.3-1.2-1.3"/></svg>

<svg  viewBox="0 0 24 24" fill="currentColor"><path  d="M21 11C21 16.5 17.2 21.7 12 23C6.8 21.7 3 16.5 3 11V5L12 1L21 5V11M12 21C15.8 20 19 15.5 19 11.2V6.3L12 3.2L5 6.3V11.2C5 15.5 8.2 20 12 21M14.8 11H10.5V8.5C10.5 7.7 11.2 7.2 12 7.2S13.5 7.7 13.5 8.5V9H14.8V8.5C14.8 7.1 13.4 6 12 6S9.2 7.1 9.2 8.5V11C8.6 11 8 11.6 8 12.2V15.7C8 16.4 8.6 17 9.2 17H14.7C15.4 17 16 16.4 16 15.8V12.3C16 11.6 15.4 11 14.8 11Z"/></svg>
